X: 16
T:Espresso Polka
% Nottingham Music Database
S:Mick Peat
P:/f2Ideal for G/D melodeon/fP
M:2/4
L:1/4
K:G
f/2|:"G"g/2d/2 "C"e/2f/4e/4|"G"d/2B/2 "D"c/2d/4c/4|"G"B/2G/2 "D"A/2F/2|\
"G"G/4A/4B/2 "D"A|
"G"g/2d/2 "C"e/2f/4e/4|"G"d/2B/2 "D"c/2d/4c/4|"G"B/2G/2 "D"A/2F/2|"G"G/2B/2 G\
:|
K:D
|:"A"G/2e/4G/4 "D"F/2f/4d/4|"A"G/2e/4c/4 "D"f/2d/2|"A"G/2e/4G/4 "D"f/2d/2|\
"D"a/2f/2 "C"g|
"A"G/2e/4G/4 "D"F/2f/4d/4|"A"G/2e/4c/4 "D"f/2d/2|"A"G/2e/4c/4 "D"f/2d/2|\
"Em"B/2"A"c/2 "D"d:|


